findly-builder/apps/searchassist/src/assets/icons/streched-graph.svg

<svg width="289" height="29" viewBox="0 0 289 29" fill="none" xmlns="http://www.w3.org/2000/svg">
<path d="M0 23.5H47.337C57.4295 23.5331 80.9928 21.592 95.7366 18.8874C114.166 15.5067 127.989 7.6515 143.786 7.75094C159.583 7.85037 166.143 28 191.155 28C216.167 28 215.53 16.1033 239.884 15.2084C264.237 14.3135 265.554 18.1914 287.274 17.4954" stroke="#3368BB"/>
<path d="M0.726074 22.9947H48.0573C58.1371 23.0452 81.9781 22.1149 96.7034 17.9893C115.11 12.8323 128.915 0.849749 144.692 1.00143C160.469 1.1531 167.043 28 192.023 28C217.004 28 216.346 13.7423 240.669 12.3772C264.992 11.0121 266.307 16.9275 288.001 15.8658" stroke="black"/>
</svg>

<svg width="289" height="29" fill="none" xmlns="http://www.w3.org/2000/svg"><path d="M0 23.5h47.337c10.092.033 33.656-1.908 48.4-4.613 18.429-3.38 32.252-11.236 48.049-11.136C159.583 7.85 166.143 28 191.155 28s24.375-11.897 48.729-12.792c24.353-.895 25.67 2.983 47.39 2.287" stroke="#3368BB"/><path d="M.726 22.995h47.331c10.08.05 33.921-.88 48.646-5.006C115.11 12.832 128.915.85 144.692 1.001 160.469 1.153 167.043 28 192.023 28c24.981 0 24.323-14.258 48.646-15.623 24.323-1.365 25.638 4.55 47.332 3.489" stroke="#000"/></svg>
